svg/emoji_u1f365.svg

<svg width="128" height="128" viewBox="0 0 128 128" fill="none" xmlns="http://www.w3.org/2000/svg">
<path d="M64.1998 3.66992C68.2898 3.66992 77.3998 11.6899 77.3998 11.6899C77.3998 11.6899 93.4298 10.1199 96.4198 11.9999C99.4098 13.8899 102.24 28.0299 102.24 28.0299C102.24 28.0299 113.72 30.0699 115.76 33.0599C117.8 36.0499 116.55 50.0399 116.55 50.0399C116.55 50.0399 124.41 58.8399 124.1 63.2399C123.79 67.6399 116.08 76.5999 116.08 76.5999C116.08 76.5999 118.75 90.9099 117.02 94.0499C115.29 97.1899 102.56 102.85 102.56 102.85C102.56 102.85 97.8398 114.95 95.6398 116.37C93.4398 117.78 77.2498 116.06 77.2498 116.06C77.2498 116.06 67.4998 124.55 64.8298 124.71C62.1598 124.87 51.6298 115.91 51.6298 115.91C51.6298 115.91 35.5998 118.11 33.2398 116.7C30.5798 115.11 26.6398 103.81 26.6398 103.81C26.6398 103.81 13.9498 100.55 11.8598 97.2099C10.2898 94.6899 10.7598 79.9199 10.7598 79.9199C10.7598 79.9199 3.71981 69.2199 3.51981 64.8199C3.35981 61.3599 11.8498 51.4599 11.8498 51.4599C11.8498 51.4599 10.5898 35.8999 12.3198 32.9099C14.0498 29.9199 24.1098 28.9799 24.1098 28.9799C24.1098 28.9799 28.6698 14.3599 31.8098 12.4699C34.9498 10.5799 50.3598 13.0999 50.3598 13.0999C50.3598 13.0999 60.4198 3.66992 64.1998 3.66992Z" fill="#AFAFAF" style="fill:#AFAFAF;fill:color(display-p3 0.6863 0.6863 0.6863);fill-opacity:1;"/>
<path d="M64.0401 7.29004C62.1601 7.12004 52.0901 16.88 52.0901 16.88C52.0901 16.88 36.6801 15.31 34.9601 16.09C33.2301 16.88 28.3601 31.5 28.3601 31.5C28.3601 31.5 16.8801 33.07 15.3101 35.27C13.7401 37.47 16.1001 52.4 16.1001 52.4C16.1001 52.4 7.6001 62.78 7.6001 64.51C7.6001 66.24 15.4601 78.03 15.4601 78.03C15.4601 78.03 14.0501 89.82 14.9901 91.39C15.9301 92.96 28.6701 97.36 28.6701 97.36C28.6701 97.36 32.7601 110.25 34.9601 111.04C37.1601 111.83 52.5701 109.63 52.5701 109.63C52.5701 109.63 62.4701 117.18 64.2001 117.18C65.9301 117.18 75.3601 109.16 75.3601 109.16C75.3601 109.16 92.0201 111.05 93.6001 110.42C95.1801 109.79 101.62 96.43 101.62 96.43C101.62 96.43 113.41 92.5 114.04 90.61C114.67 88.72 111.68 73.63 111.68 73.63C111.68 73.63 120.64 63.88 120.48 61.37C120.32 58.85 112.62 50.52 112.62 50.52C112.62 50.52 113.88 36.53 112.78 34.64C111.68 32.75 99.2601 30.87 99.2601 30.87C99.2601 30.87 96.1201 16.56 94.5401 15.62C92.9701 14.68 77.7201 16.41 77.7201 16.41C77.7201 16.41 65.7701 7.45004 64.0401 7.29004Z" fill="#E2E2E2" style="fill:#E2E2E2;fill:color(display-p3 0.8863 0.8863 0.8863);fill-opacity:1;"/>
<path d="M64.2002 12.6299C64.2002 12.6299 74.7302 20.7999 76.1502 21.1199C77.5602 21.4299 91.5602 19.3899 91.5602 19.3899C91.5602 19.3899 94.5502 33.2199 95.4902 34.1699C96.4302 35.1199 108.54 37.7899 108.54 37.7899C108.54 37.7899 108.23 50.9899 108.7 51.7799C109.17 52.5699 115.62 61.5299 115.62 61.5299C115.62 61.5299 107.6 71.4299 107.29 72.6899C106.98 73.9499 110.28 88.5699 110.28 88.5699C110.28 88.5699 98.9602 92.9699 98.0202 93.7599C97.0802 94.5499 91.7302 105.86 91.7302 105.86C91.7302 105.86 76.1702 104.13 74.2802 104.6C72.3902 105.07 64.5302 111.52 64.5302 111.52C64.5302 111.52 54.7802 105.23 53.3702 104.76C51.9602 104.29 37.0202 106.49 37.0202 106.49C37.0202 106.49 32.1502 94.3899 31.3602 93.5999C30.5702 92.8099 19.7302 88.5699 19.7302 88.5699C19.7302 88.5699 20.5202 76.3099 20.2002 75.3699C19.8902 74.4299 12.9702 64.2099 12.9702 64.2099C12.9702 64.2099 20.2002 54.6199 20.6702 52.5799C21.1402 50.5399 19.7302 37.9599 19.7302 37.9599C19.7302 37.9599 31.3602 35.2899 32.1502 34.4999C32.9402 33.7099 37.3402 19.7199 37.3402 19.7199C37.3402 19.7199 51.6502 21.9199 53.2202 21.6099C54.7902 21.2999 64.2002 12.6299 64.2002 12.6299Z" fill="#FEFFFF" style="fill:#FEFFFF;fill:color(display-p3 0.9961 1.0000 1.0000);fill-opacity:1;"/>
<path d="M67.5401 94.6339C67.7801 92.7039 62.2201 92.3839 56.1601 89.3339C50.6001 86.5339 30.5801 72.5039 41.8601 50.0439C46.8401 40.1239 56.8401 36.1339 67.4401 37.4039C80.5701 38.9739 91.3701 49.6539 87.9601 63.4739C85.8301 72.1039 79.7101 75.3339 73.6001 76.0339C65.2001 76.9939 58.1201 71.0639 58.0001 64.6439C57.8101 53.6539 70.9401 54.9139 70.7401 60.5639C70.5401 66.2139 73.6601 66.6939 74.5301 66.7839C75.4101 66.8839 79.3001 66.0039 79.4901 60.9439C79.6801 55.8839 76.1901 45.8339 63.2501 46.7439C49.5401 47.7039 48.0701 61.0339 48.7501 66.4739C49.0901 69.2039 52.2601 83.7939 69.4801 84.9639C86.7701 86.1339 96.2501 72.5639 96.8401 61.2839C98.0101 38.7239 80.1801 26.8039 61.3101 27.8739C42.4401 28.9439 30.4801 45.3639 30.8701 64.2339C31.2801 84.0739 48.0201 92.1139 52.9001 94.2539C58.1901 96.5639 67.2501 97.0139 67.5401 94.6339Z" fill="#EF7E99" style="fill:#EF7E99;fill:color(display-p3 0.9373 0.4941 0.6005);fill-opacity:1;"/>
</svg>

<?xml version="1.0" encoding="utf-8"?>
<!-- Generator: Adobe Illustrator 25.2.3, SVG Export Plug-In . SVG Version: 6.00 Build 0)  -->
<svg version="1.1" id="Layer_2" xmlns="http://www.w3.org/2000/svg" xmlns:xlink="http://www.w3.org/1999/xlink" x="0px" y="0px"
	 viewBox="0 0 128 128" style="enable-background:new 0 0 128 128;" xml:space="preserve">
<path style="fill:#AFAFAF;" d="M64.2,3.67c4.09,0,13.2,8.02,13.2,8.02S93.43,10.12,96.42,12c2.99,1.89,5.82,16.03,5.82,16.03
	s11.48,2.04,13.52,5.03c2.04,2.99,0.79,16.98,0.79,16.98s7.86,8.8,7.55,13.2s-8.02,13.36-8.02,13.36s2.67,14.31,0.94,17.45
	c-1.73,3.14-14.46,8.8-14.46,8.8s-4.72,12.1-6.92,13.52c-2.2,1.41-18.39-0.31-18.39-0.31s-9.75,8.49-12.42,8.65
	c-2.67,0.16-13.2-8.8-13.2-8.8s-16.03,2.2-18.39,0.79c-2.66-1.59-6.6-12.89-6.6-12.89s-12.69-3.26-14.78-6.6
	c-1.57-2.52-1.1-17.29-1.1-17.29S3.72,69.22,3.52,64.82c-0.16-3.46,8.33-13.36,8.33-13.36s-1.26-15.56,0.47-18.55
	s11.79-3.93,11.79-3.93s4.56-14.62,7.7-16.51s18.55,0.63,18.55,0.63S60.42,3.67,64.2,3.67z"/>
<path style="fill:#E2E2E2;" d="M64.04,7.29c-1.88-0.17-11.95,9.59-11.95,9.59s-15.41-1.57-17.13-0.79
	c-1.73,0.79-6.6,15.41-6.6,15.41s-11.48,1.57-13.05,3.77s0.79,17.13,0.79,17.13S7.6,62.78,7.6,64.51c0,1.73,7.86,13.52,7.86,13.52
	s-1.41,11.79-0.47,13.36c0.94,1.57,13.68,5.97,13.68,5.97s4.09,12.89,6.29,13.68c2.2,0.79,17.61-1.41,17.61-1.41
	s9.9,7.55,11.63,7.55c1.73,0,11.16-8.02,11.16-8.02s16.66,1.89,18.24,1.26s8.02-13.99,8.02-13.99s11.79-3.93,12.42-5.82
	s-2.36-16.98-2.36-16.98s8.96-9.75,8.8-12.26c-0.16-2.52-7.86-10.85-7.86-10.85s1.26-13.99,0.16-15.88
	c-1.1-1.89-13.52-3.77-13.52-3.77s-3.14-14.31-4.72-15.25c-1.57-0.94-16.82,0.79-16.82,0.79S65.77,7.45,64.04,7.29z"/>
<path style="fill:#FEFFFF;" d="M64.2,12.63c0,0,10.53,8.17,11.95,8.49c1.41,0.31,15.41-1.73,15.41-1.73s2.99,13.83,3.93,14.78
	s13.05,3.62,13.05,3.62s-0.31,13.2,0.16,13.99c0.47,0.79,6.92,9.75,6.92,9.75s-8.02,9.9-8.33,11.16s2.99,15.88,2.99,15.88
	s-11.32,4.4-12.26,5.19c-0.94,0.79-6.29,12.1-6.29,12.1s-15.56-1.73-17.45-1.26c-1.89,0.47-9.75,6.92-9.75,6.92
	s-9.75-6.29-11.16-6.76c-1.41-0.47-16.35,1.73-16.35,1.73s-4.87-12.1-5.66-12.89c-0.79-0.79-11.63-5.03-11.63-5.03
	s0.79-12.26,0.47-13.2c-0.31-0.94-7.23-11.16-7.23-11.16s7.23-9.59,7.7-11.63s-0.94-14.62-0.94-14.62s11.63-2.67,12.42-3.46
	c0.79-0.79,5.19-14.78,5.19-14.78s14.31,2.2,15.88,1.89S64.2,12.63,64.2,12.63z"/>
<path style="fill:#EF7EAD;" d="M67.54,29.39c0.24,1.93-5.32,2.25-11.38,5.3c-5.56,2.8-25.58,16.83-14.3,39.29
	c4.98,9.92,14.98,13.91,25.58,12.64c13.13-1.57,23.93-12.25,20.52-26.07c-2.13-8.63-8.25-11.86-14.36-12.56
	c-8.4-0.96-15.48,4.97-15.6,11.39c-0.19,10.99,12.94,9.73,12.74,4.08s2.92-6.13,3.79-6.22c0.88-0.1,4.77,0.78,4.96,5.84
	s-3.3,15.11-16.24,14.2c-13.71-0.96-15.18-14.29-14.5-19.73c0.34-2.73,3.51-17.32,20.73-18.49c17.29-1.17,26.77,12.4,27.36,23.68
	c1.17,22.56-16.66,34.48-35.53,33.41S30.48,78.66,30.87,59.79c0.41-19.84,17.15-27.88,22.03-30.02
	C58.19,27.46,67.25,27.01,67.54,29.39z"/>
</svg>
